X: 4271
T: Bob Wi' The One Horn, The
R: reel
M: 4/4
K: Gminor
D<GG>F D<GG>A|F>GA>B c/B/A/G/ F<A|D<GG>F D<GG>g|f>c e/d/B/A/ G2 G:|
g>ab>g d>gb>g|a/g/f/d/ ~c>d f>ca<f|g>ab>g d>gb>g|b/a/g/f/ d>^f g/g/g ~g2|
g>ab>g a>^fg>d|f>cd<f A>Fc>A|D<GG>F D>GG<g|f>c d/c/B/A/ G2 G||

